img/rydberg.svg

<svg height="43.2303" viewBox="0 0 282.193 32.4227" width="376.2573" xmlns="http://www.w3.org/2000/svg" xmlns:xlink="http://www.w3.org/1999/xlink"><defs><path d="M1.884-.888c-.108.42-.132.54-.972.54-.228 0-.348 0-.348.216C.564 0 .636 0 .876 0H4.68c2.424 0 4.788-2.508 4.788-5.184 0-1.728-1.032-3.012-2.748-3.012H2.868c-.228 0-.336 0-.336.228 0 .12.108.12.288.12.732 0 .732.096.732.228 0 .024 0 .096-.048.276L1.884-.888zM4.416-7.38c.108-.444.156-.468.624-.468h1.32c1.128 0 2.16.612 2.16 2.268 0 .6-.24 2.688-1.404 4.008-.336.396-1.248 1.224-2.628 1.224H3.12c-.168 0-.192 0-.264-.012-.132-.012-.144-.036-.144-.132 0-.084.024-.156.048-.264L4.416-7.38z" id="g"/><path d="M7.428-6.864c.408-.648.78-.936 1.392-.984.12-.012.216-.012.216-.228 0-.048-.024-.12-.132-.12-.216 0-.732.024-.948.024-.348 0-.708-.024-1.044-.024-.096 0-.216 0-.216.228 0 .108.108.12.156.12.444.036.492.252.492.396 0 .18-.168.456-.18.468L3.396-1.008l-.84-6.468c0-.348.624-.372.756-.372.18 0 .288 0 .288-.228 0-.12-.132-.12-.168-.12-.204 0-.444.024-.648.024h-.672c-.876 0-1.236-.024-1.248-.024-.072 0-.216 0-.216.216 0 .132.084.132.276.132.612 0 .648.108.684.408l.96 7.404c.036.252.036.288.204.288.144 0 .204-.036.324-.228l4.332-6.888z" id="a"/><path d="M2.772-8.028c.012-.048.036-.12.036-.18 0-.12-.12-.12-.144-.12-.012 0-.444.036-.66.06-.204.012-.384.036-.6.048-.288.024-.372.036-.372.252 0 .12.12.12.24.12.612 0 .612.108.612.228 0 .084-.096.432-.144.648L1.452-5.82C1.332-5.34.648-2.616.6-2.4c-.06.3-.06.504-.06.66C.54-.516 1.224.12 2.004.12c1.392 0 2.832-1.788 2.832-3.528 0-1.104-.624-1.884-1.524-1.884-.624 0-1.188.516-1.416.756l.876-3.492zM2.016-.12c-.384 0-.804-.288-.804-1.224 0-.396.036-.624.252-1.464.036-.156.228-.924.276-1.08.024-.096.732-1.164 1.548-1.164.528 0 .768.528.768 1.152 0 .576-.336 1.932-.636 2.556-.3.648-.852 1.224-1.404 1.224z" id="l"/><path d="M4.668-4.908c-.372.072-.564.336-.564.6 0 .288.228.384.396.384.336 0 .612-.288.612-.648 0-.384-.372-.72-.972-.72-.48 0-1.032.216-1.536.948-.084-.636-.564-.948-1.044-.948-.468 0-.708.36-.852.624-.204.432-.384 1.152-.384 1.212 0 .048.048.108.132.108.096 0 .108-.012.18-.288.18-.72.408-1.416.888-1.416.288 0 .372.204.372.552 0 .264-.12.732-.204 1.104L1.356-2.1c-.048.228-.18.768-.24.984C1.032-.804.9-.24.9-.18c0 .168.132.3.312.3.132 0 .36-.084.432-.324.036-.096.48-1.908.552-2.184.06-.264.132-.516.192-.78.048-.168.096-.36.132-.516.036-.108.36-.696.66-.96.144-.132.456-.408.948-.408.192 0 .384.036.54.144z" id="c"/><path d="M3.9 2.916c0-.036 0-.06-.204-.264-1.2-1.212-1.872-3.192-1.872-5.64 0-2.328.564-4.332 1.956-5.748.12-.108.12-.132.12-.168C3.9-8.976 3.84-9 3.792-9c-.156 0-1.14.864-1.728 2.04-.612 1.212-.888 2.496-.888 3.972 0 1.068.168 2.496.792 3.78.708 1.44 1.692 2.22 1.824 2.22.048 0 .108-.024.108-.096z" id="b"/><path d="M3.384-2.988c0-.912-.12-2.4-.792-3.792C1.884-8.22.9-9 .768-9 .72-9 .66-8.976.66-8.904c0 .036 0 .06.204.264C2.064-7.428 2.736-5.448 2.736-3c0 2.328-.564 4.332-1.956 5.748-.12.108-.12.132-.12.168 0 .072.06.096.108.096.156 0 1.14-.864 1.728-2.04.612-1.224.888-2.52.888-3.96z" id="d"/><path d="M4.788-2.772H8.1c.168 0 .384 0 .384-.216 0-.228-.204-.228-.384-.228H4.788v-3.312c0-.168 0-.384-.216-.384-.228 0-.228.204-.228.384v3.312H1.032c-.168 0-.384 0-.384.216 0 .228.204.228.384.228h3.312V.54c0 .168 0 .384.216.384.228 0 .228-.204.228-.384v-3.312z" id="k"/><path d="M3.456-7.692c0-.276 0-.288-.24-.288-.288.324-.888.768-2.124.768v.348c.276 0 .876 0 1.536-.312v6.252c0 .432-.036.576-1.092.576h-.372V0c.324-.024 1.488-.024 1.884-.024s1.548 0 1.872.024v-.348h-.372c-1.056 0-1.092-.144-1.092-.576v-6.768z" id="j"/><path d="M8.1-3.888c.168 0 .384 0 .384-.216 0-.228-.204-.228-.384-.228H1.032c-.168 0-.384 0-.384.216 0 .228.204.228.384.228H8.1zm0 2.232c.168 0 .384 0 .384-.216 0-.228-.204-.228-.384-.228H1.032c-.168 0-.384 0-.384.216 0 .228.204.228.384.228H8.1z" id="e"/><path d="M4.596-2.784c.264 0 .288 0 .288-.228 0-1.212-.648-2.34-2.1-2.34C1.416-5.352.36-4.116.36-2.628.36-1.044 1.584.12 2.916.12c1.428 0 1.968-1.296 1.968-1.548 0-.072-.06-.12-.132-.12-.096 0-.12.06-.144.12C4.296-.42 3.492-.144 2.988-.144S1.272-.48 1.272-2.556v-.228h3.324zm-3.312-.228c.096-1.884 1.152-2.1 1.488-2.1 1.284 0 1.356 1.692 1.368 2.1H1.284z" id="n"/><path d="M2.94 1.98c-.768 0-.912 0-.912-.54V-.648c.216.3.708.768 1.476.768 1.38 0 2.592-1.164 2.592-2.712 0-1.524-1.128-2.7-2.436-2.7-1.056 0-1.62.756-1.656.804v-.804L.336-5.16v.348c.84 0 .912.084.912.612v5.64c0 .54-.132.54-.912.54v.348c.312-.024.96-.024 1.296-.024.348 0 .996 0 1.308.024V1.98zm-.912-5.808c0-.228 0-.24.132-.432.36-.54.948-.768 1.404-.768.9 0 1.62 1.092 1.62 2.436 0 1.428-.816 2.472-1.74 2.472-.372 0-.72-.156-.96-.384-.276-.276-.456-.516-.456-.852v-2.472z" id="p"/><path d="M3.36-2.832c.348-.456.852-1.104 1.08-1.356.492-.552 1.056-.636 1.44-.636v-.348c-.516.024-.54.024-1.008.024-.456 0-.48 0-1.08-.024v.348c.156.024.348.096.348.372 0 .204-.108.336-.18.432l-.768.972-.936-1.236c-.036-.048-.108-.156-.108-.24 0-.072.06-.288.42-.3v-.348c-.3.024-.912.024-1.236.024-.396 0-.42 0-1.152-.024v.348c.612 0 .84.024 1.092.348L2.676-2.64c.024.024.072.096.072.132S1.812-1.296 1.692-1.14C1.164-.492.636-.36.12-.348V0c.456-.024.48-.024.996-.024.456 0 .48 0 1.08.024v-.348c-.288-.036-.336-.216-.336-.384 0-.192.084-.288.204-.444.18-.252.576-.744.864-1.116l.984 1.284c.204.264.204.288.204.36 0 .096-.096.288-.42.3V0c.312-.024.9-.024 1.236-.024.396 0 .42 0 1.14.024v-.348c-.636 0-.852-.024-1.14-.408L3.36-2.832z" id="o"/><path d="M7.908-2.76c.204 0 .42 0 .42-.24s-.216-.24-.42-.24H1.416c-.204 0-.42 0-.42.24s.216.24.42.24h6.492z" id="f"/><path d="M3.912-2.552c0-.856-.088-1.376-.352-1.888-.352-.704-1-.88-1.44-.88-1.008 0-1.376.752-1.488.976C.344-3.76.328-2.968.328-2.552c0 .528.024 1.336.408 1.976.368.592.96.744 1.384.744.384 0 1.072-.12 1.472-.912.296-.576.32-1.288.32-1.808zM2.12-.056c-.272 0-.824-.128-.992-.968-.088-.456-.088-1.208-.088-1.624 0-.552 0-1.112.088-1.552.168-.816.792-.896.992-.896.272 0 .824.136.984.864.096.44.096 1.04.096 1.584 0 .472 0 1.192-.096 1.64-.168.84-.72.952-.984.952z" id="h"/><path d="M3 28.308h3.156v-.66H3.66V.18h2.496v-.66H3v28.788z" id="i"/><path d="M2.664 27.648H.168v.66h3.156V-.48H.168v.66h2.496v27.468z" id="m"/></defs><g fill="#f9df08"><g transform="translate(-63.986 -61.02) scale(1.12578)"><use x="56.6248" xlink:href="#a" y="71.4001"/><use x="66.0858" xlink:href="#b" y="71.4001"/><use x="70.6552" xlink:href="#c" y="71.4001"/><use x="76.2767" xlink:href="#d" y="71.4001"/><use x="84.1794" xlink:href="#e" y="71.4001"/><use x="96.6515" xlink:href="#f" y="71.4001"/><use x="105.985" xlink:href="#g" y="71.4001"/><use x="115.741" xlink:href="#h" y="73.2001"/><use x="122.491" xlink:href="#i" y="54.48"/><use x="128.824" xlink:href="#j" y="71.4001"/><use x="137.366" xlink:href="#k" y="71.4001"/><use x="152.896" xlink:href="#l" y="63.282"/><use x="150.371" xlink:href="#c" y="79.6315"/><use x="155.666" xlink:href="#h" y="81.4315"/><use x="163.616" xlink:href="#b" y="71.4001"/><use x="168.185" xlink:href="#c" y="71.4001"/><use x="176.474" xlink:href="#f" y="71.4001"/><use x="188.474" xlink:href="#c" y="71.4001"/><use x="193.769" xlink:href="#h" y="73.2001"/><use x="198.519" xlink:href="#d" y="71.4001"/><use x="203.088" xlink:href="#m" y="54.48"/><use x="211.421" xlink:href="#n" y="71.4001"/><use x="216.644" xlink:href="#o" y="71.4001"/><use x="222.845" xlink:href="#p" y="71.4001"/><use x="231.373" xlink:href="#i" y="54.48"/><use x="237.706" xlink:href="#f" y="71.4001"/><use x="250.764" xlink:href="#l" y="63.282"/><use x="248.239" xlink:href="#c" y="79.6315"/><use x="253.534" xlink:href="#h" y="81.4315"/><use x="261.484" xlink:href="#b" y="71.4001"/><use x="266.054" xlink:href="#c" y="71.4001"/><use x="274.342" xlink:href="#f" y="71.4001"/><use x="286.342" xlink:href="#c" y="71.4001"/><use x="291.637" xlink:href="#h" y="73.2001"/><use x="296.387" xlink:href="#d" y="71.4001"/><use x="300.956" xlink:href="#m" y="54.48"/></g><path d="M105.2987 15.7133h11.3086v.5404h-11.3086zM215.4765 15.7133h11.3087v.5404h-11.3087z"/></g></svg>

<?xml version='1.0' encoding='ISO-8859-1'?>
<!DOCTYPE svg PUBLIC "-//W3C//DTD SVG 1.1//EN" "http://www.w3.org/Graphics/SVG/1.1/DTD/svg11.dtd">
<!-- This file was generated by dvisvgm 1.2.2 (x86_64-unknown-linux-gnu) -->
<!-- Sat May 20 07:10:36 2017 -->
<svg height='32.4227pt' version='1.1' viewBox='0 0 282.193 32.4227' width='282.193pt' xmlns='http://www.w3.org/2000/svg' xmlns:xlink='http://www.w3.org/1999/xlink'>
<defs>
<path d='M1.884 -0.888C1.776 -0.468 1.752 -0.348 0.912 -0.348C0.684 -0.348 0.564 -0.348 0.564 -0.132C0.564 0 0.636 0 0.876 0H4.68C7.104 0 9.468 -2.508 9.468 -5.184C9.468 -6.912 8.436 -8.196 6.72 -8.196H2.868C2.64 -8.196 2.532 -8.196 2.532 -7.968C2.532 -7.848 2.64 -7.848 2.82 -7.848C3.552 -7.848 3.552 -7.752 3.552 -7.62C3.552 -7.596 3.552 -7.524 3.504 -7.344L1.884 -0.888ZM4.416 -7.38C4.524 -7.824 4.572 -7.848 5.04 -7.848H6.36C7.488 -7.848 8.52 -7.236 8.52 -5.58C8.52 -4.98 8.28 -2.892 7.116 -1.572C6.78 -1.176 5.868 -0.348 4.488 -0.348H3.12C2.952 -0.348 2.928 -0.348 2.856 -0.36C2.724 -0.372 2.712 -0.396 2.712 -0.492C2.712 -0.576 2.736 -0.648 2.76 -0.756L4.416 -7.38Z' id='g0-68'/>
<path d='M7.428 -6.864C7.836 -7.512 8.208 -7.8 8.82 -7.848C8.94 -7.86 9.036 -7.86 9.036 -8.076C9.036 -8.124 9.012 -8.196 8.904 -8.196C8.688 -8.196 8.172 -8.172 7.956 -8.172C7.608 -8.172 7.248 -8.196 6.912 -8.196C6.816 -8.196 6.696 -8.196 6.696 -7.968C6.696 -7.86 6.804 -7.848 6.852 -7.848C7.296 -7.812 7.344 -7.596 7.344 -7.452C7.344 -7.272 7.176 -6.996 7.164 -6.984L3.396 -1.008L2.556 -7.476C2.556 -7.824 3.18 -7.848 3.312 -7.848C3.492 -7.848 3.6 -7.848 3.6 -8.076C3.6 -8.196 3.468 -8.196 3.432 -8.196C3.228 -8.196 2.988 -8.172 2.784 -8.172H2.112C1.236 -8.172 0.876 -8.196 0.864 -8.196C0.792 -8.196 0.648 -8.196 0.648 -7.98C0.648 -7.848 0.732 -7.848 0.924 -7.848C1.536 -7.848 1.572 -7.74 1.608 -7.44L2.568 -0.036C2.604 0.216 2.604 0.252 2.772 0.252C2.916 0.252 2.976 0.216 3.096 0.024L7.428 -6.864Z' id='g0-86'/>
<path d='M2.772 -8.028C2.784 -8.076 2.808 -8.148 2.808 -8.208C2.808 -8.328 2.688 -8.328 2.664 -8.328C2.652 -8.328 2.22 -8.292 2.004 -8.268C1.8 -8.256 1.62 -8.232 1.404 -8.22C1.116 -8.196 1.032 -8.184 1.032 -7.968C1.032 -7.848 1.152 -7.848 1.272 -7.848C1.884 -7.848 1.884 -7.74 1.884 -7.62C1.884 -7.536 1.788 -7.188 1.74 -6.972L1.452 -5.82C1.332 -5.34 0.648 -2.616 0.6 -2.4C0.54 -2.1 0.54 -1.896 0.54 -1.74C0.54 -0.516 1.224 0.12 2.004 0.12C3.396 0.12 4.836 -1.668 4.836 -3.408C4.836 -4.512 4.212 -5.292 3.312 -5.292C2.688 -5.292 2.124 -4.776 1.896 -4.536L2.772 -8.028ZM2.016 -0.12C1.632 -0.12 1.212 -0.408 1.212 -1.344C1.212 -1.74 1.248 -1.968 1.464 -2.808C1.5 -2.964 1.692 -3.732 1.74 -3.888C1.764 -3.984 2.472 -5.052 3.288 -5.052C3.816 -5.052 4.056 -4.524 4.056 -3.9C4.056 -3.324 3.72 -1.968 3.42 -1.344C3.12 -0.696 2.568 -0.12 2.016 -0.12Z' id='g0-98'/>
<path d='M4.668 -4.908C4.296 -4.836 4.104 -4.572 4.104 -4.308C4.104 -4.02 4.332 -3.924 4.5 -3.924C4.836 -3.924 5.112 -4.212 5.112 -4.572C5.112 -4.956 4.74 -5.292 4.14 -5.292C3.66 -5.292 3.108 -5.076 2.604 -4.344C2.52 -4.98 2.04 -5.292 1.56 -5.292C1.092 -5.292 0.852 -4.932 0.708 -4.668C0.504 -4.236 0.324 -3.516 0.324 -3.456C0.324 -3.408 0.372 -3.348 0.456 -3.348C0.552 -3.348 0.564 -3.36 0.636 -3.636C0.816 -4.356 1.044 -5.052 1.524 -5.052C1.812 -5.052 1.896 -4.848 1.896 -4.5C1.896 -4.236 1.776 -3.768 1.692 -3.396L1.356 -2.1C1.308 -1.872 1.176 -1.332 1.116 -1.116C1.032 -0.804 0.9 -0.24 0.9 -0.18C0.9 -0.012 1.032 0.12 1.212 0.12C1.344 0.12 1.572 0.036 1.644 -0.204C1.68 -0.3 2.124 -2.112 2.196 -2.388C2.256 -2.652 2.328 -2.904 2.388 -3.168C2.436 -3.336 2.484 -3.528 2.52 -3.684C2.556 -3.792 2.88 -4.38 3.18 -4.644C3.324 -4.776 3.636 -5.052 4.128 -5.052C4.32 -5.052 4.512 -5.016 4.668 -4.908Z' id='g0-114'/>
<path d='M3.9 2.916C3.9 2.88 3.9 2.856 3.696 2.652C2.496 1.44 1.824 -0.54 1.824 -2.988C1.824 -5.316 2.388 -7.32 3.78 -8.736C3.9 -8.844 3.9 -8.868 3.9 -8.904C3.9 -8.976 3.84 -9 3.792 -9C3.636 -9 2.652 -8.136 2.064 -6.96C1.452 -5.748 1.176 -4.464 1.176 -2.988C1.176 -1.92 1.344 -0.492 1.968 0.792C2.676 2.232 3.66 3.012 3.792 3.012C3.84 3.012 3.9 2.988 3.9 2.916Z' id='g1-40'/>
<path d='M3.384 -2.988C3.384 -3.9 3.264 -5.388 2.592 -6.78C1.884 -8.22 0.9 -9 0.768 -9C0.72 -9 0.66 -8.976 0.66 -8.904C0.66 -8.868 0.66 -8.844 0.864 -8.64C2.064 -7.428 2.736 -5.448 2.736 -3C2.736 -0.672 2.172 1.332 0.78 2.748C0.66 2.856 0.66 2.88 0.66 2.916C0.66 2.988 0.72 3.012 0.768 3.012C0.924 3.012 1.908 2.148 2.496 0.972C3.108 -0.252 3.384 -1.548 3.384 -2.988Z' id='g1-41'/>
<path d='M4.788 -2.772H8.1C8.268 -2.772 8.484 -2.772 8.484 -2.988C8.484 -3.216 8.28 -3.216 8.1 -3.216H4.788V-6.528C4.788 -6.696 4.788 -6.912 4.572 -6.912C4.344 -6.912 4.344 -6.708 4.344 -6.528V-3.216H1.032C0.864 -3.216 0.648 -3.216 0.648 -3C0.648 -2.772 0.852 -2.772 1.032 -2.772H4.344V0.54C4.344 0.708 4.344 0.924 4.56 0.924C4.788 0.924 4.788 0.72 4.788 0.54V-2.772Z' id='g1-43'/>
<path d='M3.456 -7.692C3.456 -7.968 3.456 -7.98 3.216 -7.98C2.928 -7.656 2.328 -7.212 1.092 -7.212V-6.864C1.368 -6.864 1.968 -6.864 2.628 -7.176V-0.924C2.628 -0.492 2.592 -0.348 1.536 -0.348H1.164V0C1.488 -0.024 2.652 -0.024 3.048 -0.024S4.596 -0.024 4.92 0V-0.348H4.548C3.492 -0.348 3.456 -0.492 3.456 -0.924V-7.692Z' id='g1-49'/>
<path d='M8.1 -3.888C8.268 -3.888 8.484 -3.888 8.484 -4.104C8.484 -4.332 8.28 -4.332 8.1 -4.332H1.032C0.864 -4.332 0.648 -4.332 0.648 -4.116C0.648 -3.888 0.852 -3.888 1.032 -3.888H8.1ZM8.1 -1.656C8.268 -1.656 8.484 -1.656 8.484 -1.872C8.484 -2.1 8.28 -2.1 8.1 -2.1H1.032C0.864 -2.1 0.648 -2.1 0.648 -1.884C0.648 -1.656 0.852 -1.656 1.032 -1.656H8.1Z' id='g1-61'/>
<path d='M4.596 -2.784C4.86 -2.784 4.884 -2.784 4.884 -3.012C4.884 -4.224 4.236 -5.352 2.784 -5.352C1.416 -5.352 0.36 -4.116 0.36 -2.628C0.36 -1.044 1.584 0.12 2.916 0.12C4.344 0.12 4.884 -1.176 4.884 -1.428C4.884 -1.5 4.824 -1.548 4.752 -1.548C4.656 -1.548 4.632 -1.488 4.608 -1.428C4.296 -0.42 3.492 -0.144 2.988 -0.144S1.272 -0.48 1.272 -2.556V-2.784H4.596ZM1.284 -3.012C1.38 -4.896 2.436 -5.112 2.772 -5.112C4.056 -5.112 4.128 -3.42 4.14 -3.012H1.284Z' id='g1-101'/>
<path d='M2.94 1.98C2.172 1.98 2.028 1.98 2.028 1.44V-0.648C2.244 -0.348 2.736 0.12 3.504 0.12C4.884 0.12 6.096 -1.044 6.096 -2.592C6.096 -4.116 4.968 -5.292 3.66 -5.292C2.604 -5.292 2.04 -4.536 2.004 -4.488V-5.292L0.336 -5.16V-4.812C1.176 -4.812 1.248 -4.728 1.248 -4.2V1.44C1.248 1.98 1.116 1.98 0.336 1.98V2.328C0.648 2.304 1.296 2.304 1.632 2.304C1.98 2.304 2.628 2.304 2.94 2.328V1.98ZM2.028 -3.828C2.028 -4.056 2.028 -4.068 2.16 -4.26C2.52 -4.8 3.108 -5.028 3.564 -5.028C4.464 -5.028 5.184 -3.936 5.184 -2.592C5.184 -1.164 4.368 -0.12 3.444 -0.12C3.072 -0.12 2.724 -0.276 2.484 -0.504C2.208 -0.78 2.028 -1.02 2.028 -1.356V-3.828Z' id='g1-112'/>
<path d='M3.36 -2.832C3.708 -3.288 4.212 -3.936 4.44 -4.188C4.932 -4.74 5.496 -4.824 5.88 -4.824V-5.172C5.364 -5.148 5.34 -5.148 4.872 -5.148C4.416 -5.148 4.392 -5.148 3.792 -5.172V-4.824C3.948 -4.8 4.14 -4.728 4.14 -4.452C4.14 -4.248 4.032 -4.116 3.96 -4.02L3.192 -3.048L2.256 -4.284C2.22 -4.332 2.148 -4.44 2.148 -4.524C2.148 -4.596 2.208 -4.812 2.568 -4.824V-5.172C2.268 -5.148 1.656 -5.148 1.332 -5.148C0.936 -5.148 0.912 -5.148 0.18 -5.172V-4.824C0.792 -4.824 1.02 -4.8 1.272 -4.476L2.676 -2.64C2.7 -2.616 2.748 -2.544 2.748 -2.508S1.812 -1.296 1.692 -1.14C1.164 -0.492 0.636 -0.36 0.12 -0.348V0C0.576 -0.024 0.6 -0.024 1.116 -0.024C1.572 -0.024 1.596 -0.024 2.196 0V-0.348C1.908 -0.384 1.86 -0.564 1.86 -0.732C1.86 -0.924 1.944 -1.02 2.064 -1.176C2.244 -1.428 2.64 -1.92 2.928 -2.292L3.912 -1.008C4.116 -0.744 4.116 -0.72 4.116 -0.648C4.116 -0.552 4.02 -0.36 3.696 -0.348V0C4.008 -0.024 4.596 -0.024 4.932 -0.024C5.328 -0.024 5.352 -0.024 6.072 0V-0.348C5.436 -0.348 5.22 -0.372 4.932 -0.756L3.36 -2.832Z' id='g1-120'/>
<path d='M7.908 -2.76C8.112 -2.76 8.328 -2.76 8.328 -3S8.112 -3.24 7.908 -3.24H1.416C1.212 -3.24 0.996 -3.24 0.996 -3S1.212 -2.76 1.416 -2.76H7.908Z' id='g2-0'/>
<path d='M3.912 -2.552C3.912 -3.408 3.824 -3.928 3.56 -4.44C3.208 -5.144 2.56 -5.32 2.12 -5.32C1.112 -5.32 0.744 -4.568 0.632 -4.344C0.344 -3.76 0.328 -2.968 0.328 -2.552C0.328 -2.024 0.352 -1.216 0.736 -0.576C1.104 0.016 1.696 0.168 2.12 0.168C2.504 0.168 3.192 0.048 3.592 -0.744C3.888 -1.32 3.912 -2.032 3.912 -2.552ZM2.12 -0.056C1.848 -0.056 1.296 -0.184 1.128 -1.024C1.04 -1.48 1.04 -2.232 1.04 -2.648C1.04 -3.2 1.04 -3.76 1.128 -4.2C1.296 -5.016 1.92 -5.096 2.12 -5.096C2.392 -5.096 2.944 -4.96 3.104 -4.232C3.2 -3.792 3.2 -3.192 3.2 -2.648C3.2 -2.176 3.2 -1.456 3.104 -1.008C2.936 -0.168 2.384 -0.056 2.12 -0.056Z' id='g3-48'/>
<path d='M3 28.308H6.156V27.648H3.66V0.18H6.156V-0.48H3V28.308Z' id='g4-20'/>
<path d='M2.664 27.648H0.168V28.308H3.324V-0.48H0.168V0.18H2.664V27.648Z' id='g4-21'/>
</defs>
<g id='page1' transform='matrix(1.12578 0 0 1.12578 -63.986 -61.02)'>
<g fill='#f9df08'>
<use x='56.6248' xlink:href='#g0-86' y='71.4001'/>
<use x='66.0858' xlink:href='#g1-40' y='71.4001'/>
<use x='70.6552' xlink:href='#g0-114' y='71.4001'/>
<use x='76.2767' xlink:href='#g1-41' y='71.4001'/>
<use x='84.1794' xlink:href='#g1-61' y='71.4001'/>
<use x='96.6515' xlink:href='#g2-0' y='71.4001'/>
<use x='105.985' xlink:href='#g0-68' y='71.4001'/>
<use x='115.741' xlink:href='#g3-48' y='73.2001'/>
<use x='122.491' xlink:href='#g4-20' y='54.48'/>
<use x='128.824' xlink:href='#g1-49' y='71.4001'/>
<use x='137.366' xlink:href='#g1-43' y='71.4001'/>
<use x='152.896' xlink:href='#g0-98' y='63.282'/>
<use x='150.371' xlink:href='#g0-114' y='79.6315'/>
<use x='155.666' xlink:href='#g3-48' y='81.4315'/>
<use x='163.616' xlink:href='#g1-40' y='71.4001'/>
<use x='168.185' xlink:href='#g0-114' y='71.4001'/>
<use x='176.474' xlink:href='#g2-0' y='71.4001'/>
<use x='188.474' xlink:href='#g0-114' y='71.4001'/>
<use x='193.769' xlink:href='#g3-48' y='73.2001'/>
<use x='198.519' xlink:href='#g1-41' y='71.4001'/>
<use x='203.088' xlink:href='#g4-21' y='54.48'/>
<use x='211.421' xlink:href='#g1-101' y='71.4001'/>
<use x='216.644' xlink:href='#g1-120' y='71.4001'/>
<use x='222.845' xlink:href='#g1-112' y='71.4001'/>
<use x='231.373' xlink:href='#g4-20' y='54.48'/>
<use x='237.706' xlink:href='#g2-0' y='71.4001'/>
<use x='250.764' xlink:href='#g0-98' y='63.282'/>
<use x='248.239' xlink:href='#g0-114' y='79.6315'/>
<use x='253.534' xlink:href='#g3-48' y='81.4315'/>
<use x='261.484' xlink:href='#g1-40' y='71.4001'/>
<use x='266.054' xlink:href='#g0-114' y='71.4001'/>
<use x='274.342' xlink:href='#g2-0' y='71.4001'/>
<use x='286.342' xlink:href='#g0-114' y='71.4001'/>
<use x='291.637' xlink:href='#g3-48' y='73.2001'/>
<use x='296.387' xlink:href='#g1-41' y='71.4001'/>
<use x='300.956' xlink:href='#g4-21' y='54.48'/>
</g>
<rect fill='#f9df08' height='0.47998' width='10.0452' x='150.371' y='68.1601'/>
<rect fill='#f9df08' height='0.47998' width='10.0452' x='248.239' y='68.1601'/>
</g>
</svg>
